X: 33652
T: Rambling Cat, The
R: reel
M: 4/4
K: Gmajor
|:D3E G3B|BAGB AGEG|D3E G3e|dBAc BAGE|
D3E G3B|BAGB AGEG|B2AG EGGB|1 dBAc BAGE:|2 dBAc BGBd||
|:eAAG BG~G2|dGeG dGBd|eAAG BAGE|DEGA BABd|
eAAG BG~G2|dGeG dBGE|1 D3E G3e|dBAc BGBd:|2 E G3e|dBAc BAGE||

